X:6570
T:The Boys of Cormacreeva
O:england
R:Reel
S:Andy Dickson, Belfast (fiddle)
C:James McMahon
D:Private tape
N:As played
M:4/4
K:D
~E3B {d}BAFE | (3.D.D.DFD {F}EDAD | EB{d}BA {d}BAFE | DFAF E2{F}ED |
EB{d}BA {d}BAFE | D2(3FED ADFD | BdBA FBAF |1 EDAF ~E2{F}ED :|2 EDAF E4 ||
(3Bcdef afef | {baf}a2 bf afef | dB{d}BA FEFA | (3BcdBA FEFA |
Bdef afef | {baf}a2bf afef | dB{d}BA FBAF | DEFA E4 :|
